dist/assets/images/icons/otr/ico-slide-5-h.svg

<svg width="53" height="53" viewBox="0 0 53 53" fill="none" xmlns="http://www.w3.org/2000/svg">
<circle cx="26.5" cy="26.5" r="26.5" fill="transition"/>
<path d="M13 42.4283V29.8569L22.7143 25.2854V29.8569L31.8571 25.2854V29.8569L41 25.2854V42.4283H13Z" stroke="#fff"/>
<path d="M19.2855 24.1428L14.7141 26.4285L15.857 14.4285H18.7141L19.2855 24.1428Z" stroke="#fff"/>
<path d="M29.0006 23.5441L25.572 25.2856L26.4292 16.1427H28.572L29.0006 23.5441Z" stroke="#fff"/>
<path d="M16.5578 12.7143C16.5578 12.7143 17.5281 12.1429 17.5281 10.8095C17.5281 9.92369 16.8727 9.73272 16.5577 8.90476C16.2674 8.14142 16.5578 7 16.5578 7" stroke="#fff"/>
<path d="M26.8434 13.8575C26.8434 13.8575 27.8138 13.2861 27.8138 11.9528C27.8138 11.0669 27.1583 10.876 26.8434 10.048C26.5531 9.28467 26.8434 8.14325 26.8434 8.14325" stroke="#fff"/>
<line x1="16.4287" y1="36.2142" x2="21.0001" y2="36.2142" stroke="#fff"/>
<line x1="24.4287" y1="36.2142" x2="29.0001" y2="36.2142" stroke="#fff"/>
<line x1="32.4287" y1="36.2142" x2="37.0001" y2="36.2142" stroke="#fff"/>
</svg>

<svg width="53" height="53" fill="none" xmlns="http://www.w3.org/2000/svg"><circle cx="26.5" cy="26.5" r="26.5" fill="transition"/><path d="M13 42.428V29.857l9.714-4.572v4.572l9.143-4.572v4.572L41 25.285v17.143H13zm6.285-18.285l-4.57 2.285 1.142-12h2.857l.572 9.715z" stroke="#fff"/><path d="M29 23.544l-3.428 1.742.857-9.143h2.143l.429 7.401zm-12.442-10.83s.97-.571.97-1.905c0-.885-.655-1.076-.97-1.904-.29-.764 0-1.905 0-1.905m10.285 6.857s.97-.57.97-1.904c0-.886-.655-1.077-.97-1.905-.29-.763 0-1.905 0-1.905M16.429 36.214H21m3.429 0H29m3.429 0H37" stroke="#fff"/></svg>
